src/images/icons/arrow-to.svg

<svg width="21" height="15" viewBox="0 0 21 15" fill="none" xmlns="http://www.w3.org/2000/svg">
<path d="M12.1795 14.3135C11.9212 14.0552 11.7972 13.743 11.8075 13.3771C11.8178 13.0111 11.9526 12.699 12.2118 12.4406L15.8607 8.79166H1.45866C1.09269 8.79166 0.785705 8.66766 0.537705 8.41966C0.289705 8.17166 0.166136 7.8651 0.166997 7.49999C0.166997 7.13402 0.290997 6.82703 0.538997 6.57903C0.786997 6.33103 1.09355 6.20746 1.45866 6.20833H15.8607L12.1795 2.52707C11.9212 2.26874 11.792 1.96176 11.792 1.60612C11.792 1.25048 11.9212 0.943922 12.1795 0.68645C12.4378 0.428117 12.7448 0.29895 13.1005 0.29895C13.4561 0.29895 13.7626 0.428117 14.0201 0.68645L19.9295 6.59583C20.0587 6.72499 20.1504 6.86492 20.2046 7.01562C20.2589 7.16631 20.2856 7.32777 20.2847 7.49999C20.2847 7.67221 20.2576 7.83367 20.2033 7.98437C20.1491 8.13506 20.0578 8.27499 19.9295 8.40416L13.9878 14.3458C13.751 14.5826 13.4552 14.701 13.1005 14.701C12.7457 14.701 12.4387 14.5719 12.1795 14.3135Z" fill="#111111"/>
</svg>

<svg width="21" height="15" fill="none" xmlns="http://www.w3.org/2000/svg"><path d="M12.18 14.313a1.224 1.224 0 0 1-.373-.936 1.33 1.33 0 0 1 .405-.936l3.649-3.65H1.459a1.25 1.25 0 0 1-.921-.371 1.245 1.245 0 0 1-.371-.92c0-.366.124-.673.372-.921s.555-.372.92-.37H15.86L12.18 2.526a1.258 1.258 0 0 1-.388-.92c0-.357.13-.663.388-.92.258-.259.565-.388.92-.388.356 0 .663.13.92.387l5.91 5.91c.129.129.22.269.275.42.054.15.08.312.08.484s-.027.334-.082.484c-.054.151-.145.291-.273.42l-5.942 5.942a1.204 1.204 0 0 1-.887.355 1.26 1.26 0 0 1-.921-.388z" fill="#111"/></svg>
